X:12201
T:Scarce O'Tatties
R:Jig
B:Tuneworks Tunebook (https://www.tuneworks.co.uk/)
G:Tuneworks
Z:Jon Warbrick <jon.warbrick@googlemail.com>
M:6/8
L:1/8
K:G
|: "Am"A2 e efg | e2 B "G"dBG | "Am"A2 e efg | "G"edB "Am"Ace | 
"Am"aAA gAA | fAA eAA | A2 e efg | "G"dBG "Am"A3 :|
"Am"aeg a2 f | "C"g2 f "Am"eAA | aeg a2 f | "C"g2 f "E"e3 | 
"Am"e3 A3 | "G"d2 e fed | "Am"A2 e efg | "G"dBG "Am"A3 :| 